X:164
T: Und's Deandl is wunderschoe, i muass's aufrichti sagn,
N: D0287
O: Europa, Mitteleuropa, Deutschland, Bayern
N: Zweistimmig notiert (Terzparallelen ); Inzipit = Variante zum Lied
R: Scherz- und Spott - Lied, Jodler
M: 3/4
L: 1/32
K: Eb
e4e4e4 | B6B2G4z2G2G4G4 | A6A2D4
d4d6d2 | c6c2F4D4E4D4 | B6B2G4
e4e4e4 | B6B2G4z2G2A4B4 | c4e4e4
e4d4c4 | c4B4d4c4B4A4 | G8z8z8
G4B4e4B6A2G4e6G2 | F4A4d4c4F4d8
F4A4d4c4F4d4A4 | G8B8e8
E2E2E4G2G2G4B2B2B4 | g8a3gf2e2d2f6 | B16z8
G4B4e4B6A2G4e6G2 | F4A4d4c4F4d8
F4A4d4c4F4d4A4 | G8B8e8 | g8z4

